X: 12410
T: Far Away
R: waltz
M: 3/4
K: Bminor
FA|:B2 BA Bd|cA F2 FA|B2 BA Be|c4dc|
B2 BA Bd|cB A2 de|fe dc BA|1 B2 BA FA:|2 B2 Bc de||
|:f2 fe fa|ec A3 e|f2fe fa|e4de|
fdB ecA|dBG cAE|F2 B2 Ac|1 B2 Bc de:|2 B2 BA FA||

